!!!OTL: Das Maedchen und der Faehnrich 'Ach Tochter, liebe Tochter mein,
!!!ARE: Europa, Osteuropa, UdSSR, Ukraine
!!!YOR: 6, S. 98
!!    1930 gedruckt
!!!SCT: Q0127A
!!!YEM: Copyright 1995, estate of Helmut Schaffrath.
**kern
*ICvox
*Ivox
!! Irregular meter.
*MX
*k[f#]
*G:
{4d
=1
4g
4a
4b
4cc
=2
4dd
4b
4g}
{4g
=3
4ee
4ee
4gg
8r
8ee
=4
4ee
4dd
4dd}
{4ee
4cc
4cc
4cc
=5
4dd
4b
4b
4g
=6
4dd}
{4b
4a
4a
4b
4a
=7
4g
4b
2.dd
4r}
{4ee
4cc
4cc
4cc
=8
4dd
4b
4b
4g
=9
4dd}
{4b
4a
4a
4cc
4a
=10
4a
4g
2.g}
==
!!!AGN: Ballade, verbotene Liebe, Flucht
!! Verzierungen (Vorschlaege) .  Grundton in der kleinen Oktave.
!!!ONB: ESAC (Essen Associative Code) Database: BALLADE
!!!AMT: irregular
!!!AIN: vox
!!!EED: Helmut Schaffrath
!!!EEV: 1.0
*-
